X: 3308
T: LAST ROSE OF SUMMER
%R: waltz
B: James Kerr "Merry Melodies" v.3 p.33 #308
Z: 2016 John Chambers <jc:trillian.mit.edu>
M: 3/4
L: 1/4
K: G
uG |\
(B2g) | (f2e) | dB2- | BGA |\
Bdc | (B2A) | G3- | G(GA) |\
Bgf | age | dB2- | BGA |\
Bdc | (B2A) | G3- | Gz |]
ud |\
(g2f) | (e2d) | dB2- | BdB |\
(g2f) | (e2^d) | e3 | f3 |\
gfg | age | dB2- | BGA |\
Bdc | (B2A) | "D.C. to Allegro."G3- | Gz |]

%%sep 1 1 500
%%sep 1 1 500

